X:17
T: Kilfenora Jig "2"
R: Jig
I:abc2nwc
M:6/8
L:1/8
K:D
F2A ABA|ABA FED|G2B B2A|B2A Bcd|F2A ABA|ABA FED|dcB AGF|1GFE D2E:|2GFE D2c|
|:d2A F2A|dfe d2c|dcB AGF|EFG ABc|d2A F2A|dfe d2c|dcB AGF|1GFE D2c:|2GFE D2E||
